X:213
T: Yao zi ge
N: C1705
O: China, Taiwan
S: IV, 638]
R: Xiaodiao]
M: 2/4
L: 1/16
K: A
b4a2c2 | b8 | b2c2b2a2 | f8
f4b4 | b4f4 | f4f2a2 | b2c2b2a2 | f2b2a3f | e8

